icons/twitter.svg

<svg width="16" height="15" xmlns="http://www.w3.org/2000/svg" version="1.1"><path fill="#000000" d="M9,1h3v1h1v1h2v1h-1v1h-1v3h-1v3h-1v1h-1v1h-2v1h-5v-1h-1v-1h-1v-1h3v-1h-1v-2h-1v-2h-1v-4h4v1h1v1h1v1h1v-3h1v-1M10,2h-1v5h-1v-1h-1v-1h-1v-1h-1v-1h-3v2h2v1h-1v1h2v1h-1v1h3v1h-2v1h-1v1h-1v1h5v-1h2v-1h1v-3h1v-3h1v-1h-1v-2h-2M10,3h1v2h-1z"/></svg>

<svg width="16" height="15" xmlns="http://www.w3.org/2000/svg"><path d="M9 1h3v1h1v1h2v1h-1v1h-1v3h-1v3h-1v1h-1v1H8v1H3v-1H2v-1H1v-1h3v-1H3V8H2V6H1V2h4v1h1v1h1v1h1V2h1V1m1 1H9v5H8V6H7V5H6V4H5V3H2v2h2v1H3v1h2v1H4v1h3v1H5v1H4v1H3v1h5v-1h2v-1h1V8h1V5h1V4h-1V2h-2m0 1h1v2h-1z"/></svg>
